Yaru++/actions/16/file-library.svg

<svg height="16" width="16" xmlns="http://www.w3.org/2000/svg">
  <g fill="#808080" transform="translate(-31.97559 -220.36218)">
    <g transform="translate(31.97559 220.36218)">
      <path d="m1.02441 8.00002 2-5h1l-2 5z" opacity=".75"/>
      <path d="m15.02441 8.00002-2-5h-1l2 5z" opacity=".75"/>
      <path d="m3.61816 4.0078325.40625-1.0078125h8l.398438.9921875z" opacity=".75"/>
      <path d="m3.6239223 4.0012818v4.0216698h-1.6130874z" opacity=".15"/>
    </g>
    <path d="m44.394153 224.36346v4.02167h1.613087z" opacity=".15"/>
    <g transform="translate(31.97559 220.36218)">
      <path d="m4.0216698 4.0454759 8.0027402-.0454559v4h-8z" opacity=".25"/>
      <path d="m1.03125 8v7h14v-7zm4 3h1v1h4v-1h1v2h-6z"/>
    </g>
  </g>
</svg>

<svg xmlns="http://www.w3.org/2000/svg" width="16" height="16" version="1.1">
 <g transform="translate(-31.97559,-220.36218)">
  <path style="fill:#808080;opacity:0.75" d="m 1.02441,8.00002 2,-5 1,0 -2,5 z" transform="translate(31.97559,220.36218)"/>
  <path style="fill:#808080;opacity:0.75" d="m 15.02441,8.00002 -2,-5 -1,0 2,5 z" transform="translate(31.97559,220.36218)"/>
  <path style="fill:#808080;opacity:0.75" d="M 3.61816,4.0078325 4.02441,3.00002 l 8,0 0.398438,0.9921875 z" transform="translate(31.97559,220.36218)"/>
  <path style="fill:#808080;opacity:0.15" d="m 3.6239223,4.0012818 0,4.0216698 -1.6130874,0 z" transform="translate(31.97559,220.36218)"/>
  <path d="m 44.394153,224.36346 0,4.02167 1.613087,0 z" style="opacity:0.15;fill:#808080"/>
  <path style="fill:#808080;opacity:0.25" d="M 4.0216698,4.0454759 12.02441,4.00002 l 0,4 -8,0 z" transform="translate(31.97559,220.36218)"/>
  <path style="fill:#808080" d="M 1.03125 8 L 1.03125 15 L 15.03125 15 L 15.03125 8 L 1.03125 8 z M 5.03125 11 L 6.03125 11 L 6.03125 12 L 10.03125 12 L 10.03125 11 L 11.03125 11 L 11.03125 13 L 5.03125 13 L 5.03125 11 z" transform="translate(31.97559,220.36218)"/>
 </g>
</svg>
